images/icons/contact-page/contact-linkedin.svg

<svg viewBox="0 0 48 45" xmlns="http://www.w3.org/2000/svg"><g fill="#1399b9" fill-rule="evenodd" transform=""><path d="m17.1428571 13.7142857h9.4885715v4.8634286h.1354285c1.32-2.3674286 4.5514286-4.8634286 9.3668572-4.8634286 10.0148571 0 11.8662857 6.2348572 11.8662857 14.3434286v16.5137143h-9.8897143v-14.64c0-3.492-.072-7.9834286-5.1445714-7.9834286-5.1514286 0-5.9365714 3.8022857-5.9365714 7.7297143v14.8937143h-9.8862858z"/><path d="m0 13.7142857h10.2857143v30.8571429h-10.2857143z"/><path d="m10.2857143 5.14285714c0 2.84057143-2.30228573 5.14285716-5.14285716 5.14285716s-5.14285714-2.30228573-5.14285714-5.14285716 2.30228571-5.14285714 5.14285714-5.14285714 5.14285716 2.30228571 5.14285716 5.14285714z"/></g></svg>

<svg viewBox="0 0 48 45" version="1.1" xmlns="http://www.w3.org/2000/svg" xmlns:xlink="http://www.w3.org/1999/xlink">
    <g stroke="none" stroke-width="1" fill="none" fill-rule="evenodd">
        <g transform="translate(-913.000000, -461.000000)" fill="#1399B9">
            <g transform="translate(638.000000, 436.000000)">
                <g transform="translate(275.000000, 25.000000)">
                    <path d="M17.1428571,13.7142857 L26.6314286,13.7142857 L26.6314286,18.5777143 L26.7668571,18.5777143 C28.0868571,16.2102857 31.3182857,13.7142857 36.1337143,13.7142857 C46.1485714,13.7142857 48,19.9491429 48,28.0577143 L48,44.5714286 L38.1102857,44.5714286 L38.1102857,29.9314286 C38.1102857,26.4394286 38.0382857,21.948 32.9657143,21.948 C27.8142857,21.948 27.0291429,25.7502857 27.0291429,29.6777143 L27.0291429,44.5714286 L17.1428571,44.5714286 L17.1428571,13.7142857 Z"></path>
                    <polygon points="0 13.7142857 10.2857143 13.7142857 10.2857143 44.5714286 0 44.5714286"></polygon>
                    <path d="M10.2857143,5.14285714 C10.2857143,7.98342857 7.98342857,10.2857143 5.14285714,10.2857143 C2.30228571,10.2857143 0,7.98342857 0,5.14285714 C0,2.30228571 2.30228571,0 5.14285714,0 C7.98342857,0 10.2857143,2.30228571 10.2857143,5.14285714 Z"></path>
                </g>
            </g>
        </g>
    </g>
</svg>
